X: 32566
T: Planxty Hewlett
R: waltz
M: 3/4
K: Dmajor
A2|:DA D2 FG|AB c2 A2|d2 f2 fg|fe c2 dB|
A2 D2 FG|(3GAG EA BG|AF DA DA|1 D4 AA:|2 D6||
|:A2 D2 AB|A2 D2 AB|A2 d2 de|dc AG FG|D2 A2 GA|
E2 E2 AG|1 (3DAG Ec cG|AG ED E2:|2 (3DAG EG cG|A6||

